dist/files/hero-solution-box-internal.svg

<svg width="142" height="142" viewBox="0 0 142 142" fill="none" xmlns="http://www.w3.org/2000/svg">
<g filter="url(#filter0_d_5180_11537)">
<circle cx="67" cy="68" r="59" fill="#152968"/>
</g>
<mask id="mask0_5180_11537" style="mask-type:luminance" maskUnits="userSpaceOnUse" x="38" y="41" width="59" height="55">
<path d="M38.4126 41.8438H96.5956V95.3695H38.4126V41.8438Z" fill="white"/>
</mask>
<g mask="url(#mask0_5180_11537)">
<path d="M41.1662 44.15H93.8327C94.0909 44.15 94.2974 44.3507 94.2974 44.6077V80.0329C94.2974 80.2848 94.0909 80.4847 93.8327 80.4847H41.1662C40.9131 80.4847 40.7065 80.2848 40.7065 80.0329V44.6077C40.7065 44.3507 40.9131 44.15 41.1662 44.15ZM39.5646 41.8711C38.9298 41.8711 38.4126 42.3791 38.4126 43.0106V81.6342C38.4126 82.2657 38.9298 82.7745 39.5596 82.7745C39.5646 82.7745 39.5646 82.7745 39.5646 82.7745H61.6829C62.3186 82.7745 62.835 83.2876 62.835 83.919V85.9931C62.835 89.7759 59.7462 92.8459 55.9388 92.8459H55.397V95.187H79.612V92.8459H79.0694C75.2629 92.8459 72.1741 89.7759 72.1741 85.9931V83.919C72.1741 83.2876 72.6904 82.7745 73.3261 82.7745H95.4495C96.0793 82.7745 96.5956 82.2657 96.5956 81.6342V43.0106C96.5956 42.3791 96.0793 41.8711 95.4495 41.8711H39.5646Z" fill="white"/>
</g>
<path d="M48.3097 72.1641C47.9432 72.1691 47.6537 72.4672 47.6588 72.8316C47.6647 73.186 47.9533 73.4732 48.3097 73.4782H60.3761C60.7435 73.4732 61.0322 73.1751 61.0271 72.8157C61.022 72.4571 60.7325 72.1691 60.3761 72.1641H48.3097Z" fill="white"/>
<path d="M48.3097 69.3828C47.9432 69.3879 47.6537 69.6851 47.6588 70.0495C47.6647 70.4039 47.9533 70.6919 48.3097 70.6969H60.3761C60.7435 70.6919 61.0322 70.3938 61.0271 70.0344C61.022 69.675 60.7325 69.3879 60.3761 69.3828H48.3097Z" fill="white"/>
<path d="M55.0039 49.3281V57.2742L61.9255 61.2426C63.9189 57.0794 62.1473 52.1 57.9581 50.1183C57.0287 49.6766 56.0264 49.4104 55.0039 49.3281Z" fill="white"/>
<path d="M53.6821 49.3281V58.0291L61.2648 62.3821C58.6357 66.1809 53.4079 67.1407 49.586 64.5275C45.7634 61.9152 44.7925 56.72 47.4216 52.9212C48.8572 50.8471 51.1562 49.528 53.6821 49.3281Z" fill="white"/>
<path d="M79.4721 59.6954L76.5899 55.1569C76.203 54.5414 75.3862 54.3617 74.7666 54.7462C74.6481 54.8185 74.5448 54.9108 74.4568 55.0183L70.7374 59.4696L69.7148 58.6273L73.4393 54.1769C74.3738 53.0627 76.0422 52.909 77.1638 53.8377C77.3754 54.0124 77.5616 54.2231 77.7115 54.454L80.5937 58.9918C80.9856 59.6081 81.7965 59.7928 82.417 59.4024C82.5558 59.3151 82.6752 59.2076 82.7683 59.0791L87.0446 53.4019L86.4098 52.9291L88.8273 52.1289L88.7342 54.6648L88.1036 54.192L83.8272 59.8642C82.9536 61.0297 81.2954 61.2657 80.1281 60.3983C79.87 60.2035 79.6482 59.9675 79.4772 59.6954H79.4721Z" fill="white"/>
<path d="M85.7954 59.3359H88.3154V71.2555H85.7954V59.3359Z" fill="white"/>
<path d="M79.9531 71.2502V64.4688H82.479V71.2502H79.9531Z" fill="white"/>
<path d="M74.1104 71.2485V57.8242H76.6362V71.2485H74.1104Z" fill="white"/>
<path d="M70.7947 71.2461H68.2739V61.6055H70.7947V71.2461Z" fill="white"/>
<defs>
<filter id="filter0_d_5180_11537" x="0.6" y="0.6" width="140.8" height="140.8" filterUnits="userSpaceOnUse" color-interpolation-filters="sRGB">
<feFlood flood-opacity="0" result="BackgroundImageFix"/>
<feColorMatrix in="SourceAlpha" type="matrix" values="0 0 0 0 0 0 0 0 0 0 0 0 0 0 0 0 0 0 127 0" result="hardAlpha"/>
<feOffset dx="4" dy="3"/>
<feGaussianBlur stdDeviation="5.7"/>
<feComposite in2="hardAlpha" operator="out"/>
<feColorMatrix type="matrix" values="0 0 0 0 0.128333 0 0 0 0 0.119778 0 0 0 0 0.119778 0 0 0 0.25 0"/>
<feBlend mode="normal" in2="BackgroundImageFix" result="effect1_dropShadow_5180_11537"/>
<feBlend mode="normal" in="SourceGraphic" in2="effect1_dropShadow_5180_11537" result="shape"/>
</filter>
</defs>
</svg>

<svg width="142" height="142" fill="none" xmlns="http://www.w3.org/2000/svg"><g filter="url(#a)"><circle cx="67" cy="68" r="59" fill="#152968"/></g><mask id="b" style="mask-type:luminance" maskUnits="userSpaceOnUse" x="38" y="41" width="59" height="55"><path d="M38.413 41.844h58.183V95.37H38.413V41.843Z" fill="#fff"/></mask><g mask="url(#b)"><path d="M41.166 44.15h52.667c.258 0 .464.2.464.458v35.425a.456.456 0 0 1-.464.452H41.166c-.253 0-.46-.2-.46-.452V44.608c0-.257.207-.458.46-.458Zm-1.601-2.279c-.635 0-1.152.508-1.152 1.14v38.623c0 .632.517 1.14 1.147 1.14H61.683a1.15 1.15 0 0 1 1.152 1.145v2.074c0 3.783-3.089 6.853-6.896 6.853h-.542v2.341h24.215v-2.341h-.543c-3.806 0-6.895-3.07-6.895-6.853V83.92a1.15 1.15 0 0 1 1.152-1.144H95.45c.63 0 1.146-.51 1.146-1.14V43.01c0-.632-.517-1.14-1.147-1.14H39.566Z" fill="#fff"/></g><path d="M48.31 72.164a.657.657 0 0 0 0 1.314h12.066a.656.656 0 0 0 .651-.662.66.66 0 0 0-.65-.652H48.31ZM48.31 69.383a.657.657 0 0 0 0 1.314h12.066a.656.656 0 0 0 .651-.663.66.66 0 0 0-.65-.651H48.31ZM55.004 49.328v7.946l6.922 3.969c1.993-4.164.221-9.143-3.968-11.125a8.466 8.466 0 0 0-2.954-.79Z" fill="#fff"/><path d="M53.682 49.328v8.701l7.583 4.353c-2.63 3.799-7.857 4.759-11.679 2.146-3.823-2.613-4.794-7.808-2.164-11.607a8.417 8.417 0 0 1 6.26-3.593ZM79.472 59.695l-2.882-4.538a1.327 1.327 0 0 0-2.133-.139l-3.72 4.452-1.022-.843 3.724-4.45a2.657 2.657 0 0 1 4.273.277l2.882 4.538a1.321 1.321 0 0 0 2.174.087l4.277-5.677-.635-.473 2.417-.8-.093 2.536-.63-.473-4.277 5.672a2.652 2.652 0 0 1-3.699.534 2.65 2.65 0 0 1-.65-.703h-.006ZM85.795 59.336h2.52v11.92h-2.52v-11.92ZM79.953 71.25V64.47h2.526v6.781h-2.526Z" fill="#fff"/><path d="M74.11 71.249V57.824h2.526V71.25H74.11ZM70.795 71.246h-2.521v-9.64h2.52v9.64Z" fill="#fff"/><defs><filter id="a" x=".6" y=".6" width="140.8" height="140.8" filterUnits="userSpaceOnUse" color-interpolation-filters="sRGB"><feFlood flood-opacity="0" result="BackgroundImageFix"/><feColorMatrix in="SourceAlpha" values="0 0 0 0 0 0 0 0 0 0 0 0 0 0 0 0 0 0 127 0" result="hardAlpha"/><feOffset dx="4" dy="3"/><feGaussianBlur stdDeviation="5.7"/><feComposite in2="hardAlpha" operator="out"/><feColorMatrix values="0 0 0 0 0.128333 0 0 0 0 0.119778 0 0 0 0 0.119778 0 0 0 0.25 0"/><feBlend in2="BackgroundImageFix" result="effect1_dropShadow_5180_11537"/><feBlend in="SourceGraphic" in2="effect1_dropShadow_5180_11537" result="shape"/></filter></defs></svg>
